!!!OTL: ZUR SCHMIEDE GING EIN JUNGER HELD
!!!ARE: Europa, Mitteleuropa, Deutschland
!!!SCT: B0104
!!!YEM: Copyright 1995, estate of Helmut Schaffrath.
**kern
*ICvox
*Ivox
*M4/4
*k[b-e-]
*B-:
{4f
=1
4b-
4b-
4b-
4cc
=2
4dd
8cc
8a
4.b-}
{8f
=3
4cc
4cc
4cc
4dd
=4
4ee-
8dd
8b-
4cc}
{4f
=5
4dd
8cc
8b-
4a
4g
=6
4f
4e-
4.d}
{8f
=7
4g
4g
4ee-
8dd
8cc
=8
4b-
4a
4b-}
==
!!!AGN: Helden -, Ehren -, Gedaechtnis -, Kriegs - Lied
!!!ONB: ESAC (Essen Associative Code) Database: BOEHME
!!!AMT: simple quadruple
!!!AIN: vox
!!!EED: Helmut Schaffrath
!!!EEV: 1.0
*-
